art/systems/ports.svg

<?xml version="1.0" encoding="UTF-8"?>
<!DOCTYPE svg  PUBLIC '-//W3C//DTD SVG 1.1//EN'  'http://www.w3.org/Graphics/SVG/1.1/DTD/svg11.dtd'>
<svg width="246.3px" height="124.4px" enable-background="new 169.102 12.001 246.295 124.395" version="1.1" viewBox="169.1 12.001 246.3 124.4" xml:space="preserve" xmlns="http://www.w3.org/2000/svg">
<linearGradient id="i" x1="-458.33" x2="-458.33" y1="157.16" y2="230.72" gradientTransform="matrix(1 0 0 -1 654 245.84)" gradientUnits="userSpaceOnUse">
	<stop stop-color="#9B9B9B" offset="0"/>
	<stop stop-color="#5B5C60" offset="1"/>
</linearGradient>
<path d="m174.23 127.86 1.17-2.779v-107.26l-2.926-3.659h36.438l9.95 6v49.898l-27.071 15.071v25.462h3.659l-21.22 17.268zm17.267-61.02 11.707-7.023v-28.389h-11.707v35.412z" fill="url(#i)"/>
<linearGradient id="h" x1="-408.36" x2="-408.36" y1="157.16" y2="230.72" gradientTransform="matrix(1 0 0 -1 654 245.84)" gradientUnits="userSpaceOnUse">
	<stop stop-color="#9B9B9B" offset="0"/>
	<stop stop-color="#5B5C60" offset="1"/>
</linearGradient>
<path d="m261.15 14.166 6.439 7.463v85.166l-23.852 20.192-20.047-18.585v-86.188l6.146-8.048h31.314zm-20.925 15.804v65.848l9.805 8.634v-74.483l-9.805 1e-3z" fill="url(#h)"/>
<linearGradient id="g" x1="-360.36" x2="-360.36" y1="157.16" y2="230.72" gradientTransform="matrix(1 0 0 -1 654 245.84)" gradientUnits="userSpaceOnUse">
	<stop stop-color="#9B9B9B" offset="0"/>
	<stop stop-color="#5B5C60" offset="1"/>
</linearGradient>
<path d="m272.86 125.38v-107.55l-2.926-3.659h36.436l9.95 6v30.876l-15.364 8.78 15.364 8.193v28.242l1.025 0.879-16.975 12.437v-34.68l-11.12-5.854v44.046l2.195 3.22-20.196 14.926 1.611-5.853zm16.096-74.629 11.706-7.024v-12.292h-11.706v19.316z" fill="url(#g)"/>
<linearGradient id="f" x1="-310.69" x2="-310.69" y1="157.16" y2="230.72" gradientTransform="matrix(1 0 0 -1 654 245.84)" gradientUnits="userSpaceOnUse">
	<stop stop-color="#9B9B9B" offset="0"/>
	<stop stop-color="#5B5C60" offset="1"/>
</linearGradient>
<path d="m334.61 31.433h-13.024v-13.609l-2.926-3.659h49.313l-2.926 3.659v13.609h-14.196v83.553l2.342 3.513-20.341 14.633 1.756-7.902v-93.797h2e-3z" fill="url(#f)"/>
<linearGradient id="e" x1="-263.42" x2="-263.42" y1="157.16" y2="230.72" gradientTransform="matrix(1 0 0 -1 654 245.84)" gradientUnits="userSpaceOnUse">
	<stop stop-color="#9B9B9B" offset="0"/>
	<stop stop-color="#5B5C60" offset="1"/>
</linearGradient>
<path d="m403.82 14.166 9.951 6v14.78h-17.56v-3.512h-9.805v21.803l27.364 14.778v24.146l-44.632 35.704 1.172-2.779v-47.998h16.096v10.39l9.805-7.17v-6l-25.899-14.634v-41.849l-2.928-3.659h36.436z" fill="url(#e)"/>
<linearGradient id="d" x1="-457.47" x2="-457.47" y1="112.86" y2="189.4" gradientTransform="matrix(1 0 0 -1 654 245.84)" gradientUnits="userSpaceOnUse">
	<stop stop-color="#F9DA55" offset="0"/>
	<stop stop-color="#E04305" offset="1"/>
</linearGradient>
<path d="m218.84 60.32v9.688l-27.072 15.071v25.461h3.659l-21.218 17.268 1.171-2.779v-39.828" fill="url(#d)"/>
<linearGradient id="c" x1="-408.38" x2="-408.38" y1="112.86" y2="189.4" gradientTransform="matrix(1 0 0 -1 654 245.84)" gradientUnits="userSpaceOnUse">
	<stop stop-color="#F9DA55" offset="0"/>
	<stop stop-color="#E04305" offset="1"/>
</linearGradient>
<path d="m267.57 84.119v22.616l-23.852 20.193-20.047-18.585v-48.474l16.535 9.014v26.877l9.804 8.634v-29.919l17.56 9.644z" fill="url(#c)"/>
<linearGradient id="b" x1="-359.72" x2="-359.72" y1="112.86" y2="189.4" gradientTransform="matrix(1 0 0 -1 654 245.84)" gradientUnits="userSpaceOnUse">
	<stop stop-color="#F9DA55" offset="0"/>
	<stop stop-color="#E04305" offset="1"/>
</linearGradient>
<path d="m289.23 76.907v36.121l2.195 3.219-20.193 14.927 1.609-5.853v-40.661m39.232-18.957 4.229 2.256v28.241l1.025 0.878-16.976 12.438v-34.68l-3.292-1.732" fill="url(#b)"/>
<linearGradient id="a" x1="-311" x2="-311" y1="112.86" y2="189.4" gradientTransform="matrix(1 0 0 -1 654 245.84)" gradientUnits="userSpaceOnUse">
	<stop stop-color="#F9DA55" offset="0"/>
	<stop stop-color="#E04305" offset="1"/>
</linearGradient>
<path d="m350.83 74.203v40.727l2.341 3.512-20.34 14.633 1.756-7.902v-61.156" fill="url(#a)"/>
<linearGradient id="j" x1="-262.56" x2="-262.56" y1="112.86" y2="189.4" gradientTransform="matrix(1 0 0 -1 654 245.84)" gradientUnits="userSpaceOnUse">
	<stop stop-color="#F9DA55" offset="0"/>
	<stop stop-color="#E04305" offset="1"/>
</linearGradient>
<path d="m403.89 62.633 9.859 5.326v24.145l-44.632 35.704 1.171-2.779v-47.998h16.096v10.391l9.805-7.171v-5.999l-8.329-4.708" fill="url(#j)"/>
<polygon points="175.9 83.96 217.28 60.023 218.36 61.898 176.99 85.834" fill="#542209"/>
<polygon points="224.34 61.506 225.37 59.604 240.72 67.934 239.69 69.834" fill="#542209"/>
<polygon points="250.54 75.686 251.64 73.821 267.46 83.153 266.36 85.018" fill="#542209"/>
<polygon points="272.91 83.797 288.46 75.953 289.44 77.885 273.89 85.727" fill="#542209"/>
<polygon points="297.24 71.634 309.54 65.143 310.55 67.059 298.25 73.549" fill="#542209"/>
<polygon points="335.01 65.109 336.2 63.305 349.72 72.229 348.53 74.035" fill="#542209"/>
<polygon points="387.9 68.225 401.82 61.869 402.72 63.839 388.79 70.195" fill="#542209"/>
<path d="m173.78 124.22v-106.36l-4.677-5.849h40.263l11.12 6.705v51.77l-27.071 15.07v22.886h6.599l-24.756 20.146-5.048 4.107 3.57-8.47zm1.949 3.735-1.496-0.629 1.496 0.629zm1.298-111.24v106.24l13.857-11.277h-0.714v-28.038l27.068-15.072v-48.03l-8.775-5.291-32.612-2e-3 1.176 1.466zm12.85 12.558h14.953v30.929l-12.496 7.495-0.835-1.391 0.835 1.391-2.458 1.479v-39.903h1e-3zm3.245 34.167 8.46-5.075v-25.847l-8.46-2e-3v30.924z"/>
<path d="m222.07 108.57v-87.443l6.965-9.121h32.118v1.622-1.622h0.741l7.321 8.48v86.52l-25.525 21.61-21.62-20.046zm3.245-86.344v84.932l18.474 17.124 22.18-18.776v-83.814l-5.56-6.442h-29.767l-5.327 6.976zm13.291 73.786v-68.203h13.049v79.7l-13.049-11.497zm3.245-1.465 6.558 5.775v-69.267h-6.558v63.492zm-1.622-63.492v-1.623 1.623z"/>
<path d="m271.23 124.61-2e-3 -106.76-4.678-5.85h40.263l11.123 6.707v32.734l-13.632 7.788 13.632 7.271-2e-3 28.469 2.014 1.724-21.208 15.534v-36.898l-7.875-4.145v40.857l2.794 4.095-25.226 18.644 2.797-10.17zm3.246 0.443-0.425 1.541 15.167-11.209-1.598-2.346v-47.229l14.365 7.56-2e-3 32.458 12.744-9.337-0.039-0.031v-28.014l-17.098-9.118 17.098-9.771v-29.019l-8.779-5.293h-32.606l1.174 1.466v108.12l-1e-3 0.22zm12.851-95.785h14.952v14.83l-12.494 7.499-0.836-1.392 0.836 1.392-2.458 1.475v-23.804zm3.245 18.071 8.461-5.078v-9.75h-8.461v14.828z"/>
<path d="m332.98 124.51v-91.998h-13.022v-14.662l-4.677-5.849h56.064l-4.681 5.851v14.66h-14.195v81.442l2.938 4.403-25.068 18.037 2.641-11.884zm3.248-95.242v95.597l-0.874 3.924 15.613-11.234-1.743-2.619v-85.668h14.194v-12.557l1.173-1.465h-42.562l1.174 1.465v12.557h11.4v1.623-1.623h1.625z"/>
<path d="m368.69 124.22v-49.293h19.341v8.813l6.559-4.794v-4.232l-25.898-14.63v-42.227l-4.678-5.851h39.81v1.623-1.623h0.453l11.123 6.706v17.319h-20.807v-3.512h-6.561v19.212l27.367 14.781v25.892l-50.234 40.179 3.525-8.363zm3.246-1.206 40.212-32.17v-22.399l-27.363-14.779v-24.393h13.051l-2e-3 3.511h14.315v-12.241l-8.775-5.291-32.613-2e-3 1.176 1.468-3e-3 41.471 25.902 14.633v7.769l-13.051 9.546v-11.964h-12.849v44.841z"/>
</svg>

<?xml version="1.0" encoding="utf-8"?>
<!-- Generator: Adobe Illustrator 13.0.0, SVG Export Plug-In . SVG Version: 6.00 Build 14948)  -->
<!DOCTYPE svg PUBLIC "-//W3C//DTD SVG 1.1//EN" "http://www.w3.org/Graphics/SVG/1.1/DTD/svg11.dtd">
<svg version="1.1" id="Layer_1" xmlns:svg="http://www.w3.org/2000/svg"
	 xmlns="http://www.w3.org/2000/svg" xmlns:xlink="http://www.w3.org/1999/xlink" x="0px" y="0px" width="246.295px"
	 height="124.395px" viewBox="169.102 12.001 246.295 124.395" enable-background="new 169.102 12.001 246.295 124.395"
	 xml:space="preserve">
<linearGradient id="SVGID_1_" gradientUnits="userSpaceOnUse" x1="-458.3301" y1="157.1563" x2="-458.3301" y2="230.7196" gradientTransform="matrix(1 0 0 -1 654 245.8398)">
	<stop  offset="0" style="stop-color:#9B9B9B"/>
	<stop  offset="1" style="stop-color:#5B5C60"/>
</linearGradient>
<path fill="url(#SVGID_1_)" d="M174.233,127.865l1.17-2.779V17.825l-2.926-3.659h36.438l9.95,6v49.898l-27.071,15.071v25.462h3.659
	L174.233,127.865z M191.5,66.845l11.707-7.023V31.433H191.5V66.845z"/>
<linearGradient id="SVGID_2_" gradientUnits="userSpaceOnUse" x1="-408.3584" y1="157.1563" x2="-408.3584" y2="230.7195" gradientTransform="matrix(1 0 0 -1 654 245.8398)">
	<stop  offset="0" style="stop-color:#9B9B9B"/>
	<stop  offset="1" style="stop-color:#5B5C60"/>
</linearGradient>
<path fill="url(#SVGID_2_)" d="M261.152,14.166l6.439,7.463v85.166l-23.852,20.192l-20.047-18.585V22.214l6.146-8.048H261.152z
	 M240.227,29.97v65.848l9.805,8.634V29.969L240.227,29.97L240.227,29.97z"/>
<linearGradient id="SVGID_3_" gradientUnits="userSpaceOnUse" x1="-360.3633" y1="157.1563" x2="-360.3633" y2="230.7198" gradientTransform="matrix(1 0 0 -1 654 245.8398)">
	<stop  offset="0" style="stop-color:#9B9B9B"/>
	<stop  offset="1" style="stop-color:#5B5C60"/>
</linearGradient>
<path fill="url(#SVGID_3_)" d="M272.857,125.378V17.825l-2.926-3.659h36.436l9.95,6v30.876l-15.364,8.78l15.364,8.193v28.242
	l1.025,0.879l-16.975,12.437v-34.68l-11.12-5.854v44.046l2.195,3.22l-20.196,14.926L272.857,125.378z M288.953,50.749l11.706-7.024
	V31.433h-11.706V50.749z"/>
<linearGradient id="SVGID_4_" gradientUnits="userSpaceOnUse" x1="-310.6855" y1="157.1563" x2="-310.6855" y2="230.7196" gradientTransform="matrix(1 0 0 -1 654 245.8398)">
	<stop  offset="0" style="stop-color:#9B9B9B"/>
	<stop  offset="1" style="stop-color:#5B5C60"/>
</linearGradient>
<path fill="url(#SVGID_4_)" d="M334.608,31.433h-13.024V17.824l-2.926-3.659h49.313l-2.926,3.659v13.609h-14.196v83.553l2.342,3.513
	l-20.341,14.633l1.756-7.902V31.433H334.608z"/>
<linearGradient id="SVGID_5_" gradientUnits="userSpaceOnUse" x1="-263.4224" y1="157.1563" x2="-263.4224" y2="230.7195" gradientTransform="matrix(1 0 0 -1 654 245.8398)">
	<stop  offset="0" style="stop-color:#9B9B9B"/>
	<stop  offset="1" style="stop-color:#5B5C60"/>
</linearGradient>
<path fill="url(#SVGID_5_)" d="M403.82,14.166l9.951,6v14.78h-17.56v-3.512h-9.805v21.803l27.364,14.778v24.146l-44.632,35.704
	l1.172-2.779V77.088h16.096v10.39l9.805-7.17v-6l-25.899-14.634V17.825l-2.928-3.659H403.82z"/>
<linearGradient id="SVGID_6_" gradientUnits="userSpaceOnUse" x1="-457.4707" y1="112.8584" x2="-457.4707" y2="189.3957" gradientTransform="matrix(1 0 0 -1 654 245.8398)">
	<stop  offset="0" style="stop-color:#F9DA55"/>
	<stop  offset="1" style="stop-color:#E04305"/>
</linearGradient>
<path fill="url(#SVGID_6_)" d="M218.845,60.32v9.688l-27.072,15.071v25.461h3.659l-21.218,17.268l1.171-2.779V85.201"/>
<linearGradient id="SVGID_7_" gradientUnits="userSpaceOnUse" x1="-408.3779" y1="112.8594" x2="-408.3779" y2="189.3956" gradientTransform="matrix(1 0 0 -1 654 245.8398)">
	<stop  offset="0" style="stop-color:#F9DA55"/>
	<stop  offset="1" style="stop-color:#E04305"/>
</linearGradient>
<path fill="url(#SVGID_7_)" d="M267.572,84.119v22.616l-23.852,20.193l-20.047-18.585V59.869l16.535,9.014V95.76l9.804,8.634V74.475
	L267.572,84.119z"/>
<linearGradient id="SVGID_8_" gradientUnits="userSpaceOnUse" x1="-359.7236" y1="112.8584" x2="-359.7236" y2="189.3984" gradientTransform="matrix(1 0 0 -1 654 245.8398)">
	<stop  offset="0" style="stop-color:#F9DA55"/>
	<stop  offset="1" style="stop-color:#E04305"/>
</linearGradient>
<path fill="url(#SVGID_8_)" d="M289.227,76.907v36.121l2.195,3.219l-20.193,14.927l1.609-5.853V84.66 M312.07,65.703l4.229,2.256
	V96.2l1.025,0.878l-16.976,12.438v-34.68l-3.292-1.732"/>
<linearGradient id="SVGID_9_" gradientUnits="userSpaceOnUse" x1="-310.9966" y1="112.8594" x2="-310.9966" y2="189.396" gradientTransform="matrix(1 0 0 -1 654 245.8398)">
	<stop  offset="0" style="stop-color:#F9DA55"/>
	<stop  offset="1" style="stop-color:#E04305"/>
</linearGradient>
<path fill="url(#SVGID_9_)" d="M350.833,74.203v40.727l2.341,3.512l-20.34,14.633l1.756-7.902V64.017"/>
<linearGradient id="SVGID_10_" gradientUnits="userSpaceOnUse" x1="-262.5625" y1="112.8584" x2="-262.5625" y2="189.397" gradientTransform="matrix(1 0 0 -1 654 245.8398)">
	<stop  offset="0" style="stop-color:#F9DA55"/>
	<stop  offset="1" style="stop-color:#E04305"/>
</linearGradient>
<path fill="url(#SVGID_10_)" d="M403.894,62.633l9.859,5.326v24.145l-44.632,35.704l1.171-2.779V77.031h16.096v10.391l9.805-7.171
	v-5.999l-8.329-4.708"/>
<polygon fill="#542209" points="175.901,83.96 217.281,60.023 218.364,61.898 176.986,85.834 "/>
<polygon fill="#542209" points="224.338,61.506 225.372,59.604 240.721,67.934 239.693,69.834 "/>
<polygon fill="#542209" points="250.54,75.686 251.64,73.821 267.461,83.153 266.36,85.018 "/>
<polygon fill="#542209" points="272.914,83.797 288.465,75.953 289.441,77.885 273.89,85.727 "/>
<polygon fill="#542209" points="297.238,71.634 309.542,65.143 310.551,67.059 298.246,73.549 "/>
<polygon fill="#542209" points="335.008,65.109 336.201,63.305 349.724,72.229 348.532,74.035 "/>
<polygon fill="#542209" points="387.895,68.225 401.821,61.869 402.721,63.839 388.793,70.195 "/>
<path d="M173.778,124.217V17.852l-4.677-5.849h40.263l11.12,6.705v51.77l-27.071,15.07v22.886h6.599l-24.756,20.146l-5.048,4.107
	L173.778,124.217L173.778,124.217z M175.727,127.952l-1.496-0.629L175.727,127.952L175.727,127.952z M177.025,16.712v106.244
	l13.857-11.277h-0.714V83.641l27.068-15.072v-48.03l-8.775-5.291l-32.612-0.002L177.025,16.712L177.025,16.712z M189.875,29.27
	h14.953v30.929l-12.496,7.495l-0.835-1.391l0.835,1.391l-2.458,1.479V29.27L189.875,29.27z M193.12,63.437l8.46-5.075V32.515
	l-8.46-0.002V63.437L193.12,63.437z"/>
<path d="M222.067,108.567V21.124l6.965-9.121h32.118v1.622v-1.622h0.741l7.321,8.48v86.52l-25.525,21.61L222.067,108.567
	L222.067,108.567z M225.312,22.223v84.932l18.474,17.124l22.18-18.776V21.689l-5.56-6.442h-29.767L225.312,22.223L225.312,22.223z
	 M238.603,96.009v-66.58v-1.623h13.049v79.7L238.603,96.009L238.603,96.009z M241.848,94.544l6.558,5.775V31.052h-6.558V94.544
	L241.848,94.544z M240.226,31.052v-1.623V31.052L240.226,31.052z"/>
<path d="M271.232,124.612L271.23,17.852l-4.678-5.85h40.263l11.123,6.707v32.734l-13.632,7.788l13.632,7.271l-0.002,28.469
	l2.014,1.724l-21.208,15.534V75.331l-7.875-4.145v40.857l2.794,4.095l-25.226,18.644L271.232,124.612L271.232,124.612z
	 M274.478,125.055l-0.425,1.541l15.167-11.209l-1.598-2.346V65.812l14.365,7.56l-0.002,32.458l12.744-9.337l-0.039-0.031V68.448
	l-17.098-9.118l17.098-9.771V20.54l-8.779-5.293h-32.606l1.174,1.466v108.122L274.478,125.055L274.478,125.055z M287.329,29.27
	h14.952V44.1l-12.494,7.499l-0.836-1.392l0.836,1.392l-2.458,1.475V29.27L287.329,29.27z M290.574,47.341l8.461-5.078v-9.75h-8.461
	V47.341L290.574,47.341z"/>
<path d="M332.982,124.512V32.514h-13.022V17.852l-4.677-5.849h56.064l-4.681,5.851v14.66h-14.195v81.442l2.938,4.403l-25.068,18.037
	L332.982,124.512L332.982,124.512z M336.23,29.27v95.597l-0.874,3.924l15.613-11.234l-1.743-2.619V29.27h14.194V16.713l1.173-1.465
	h-42.562l1.174,1.465V29.27h11.4v1.623V29.27H336.23L336.23,29.27z"/>
<path d="M368.687,124.216V74.923h19.341v8.813l6.559-4.794V74.71l-25.898-14.63V17.853l-4.678-5.851h39.81v1.623v-1.623h0.453
	l11.123,6.706v17.319H394.59v-3.512h-6.561v19.212l27.367,14.781V92.4l-50.234,40.179L368.687,124.216L368.687,124.216z
	 M371.933,123.01l40.212-32.17V68.441l-27.363-14.779V29.269h13.051l-0.002,3.511h14.315V20.539l-8.775-5.291l-32.613-0.002
	l1.176,1.468l-0.003,41.471l25.902,14.633v7.769l-13.051,9.546V78.169h-12.849V123.01L371.933,123.01z"/>
</svg>
